elementary-xfce/devices/symbolic/video-display-tv-symbolic.svg

<?xml version="1.0" encoding="UTF-8" standalone="no"?>
<svg
   xmlns:dc="http://purl.org/dc/elements/1.1/"
   xmlns:cc="http://creativecommons.org/ns#"
   xmlns:rdf="http://www.w3.org/1999/02/22-rdf-syntax-ns#"
   xmlns:svg="http://www.w3.org/2000/svg"
   xmlns="http://www.w3.org/2000/svg"
   height="16.004"
   width="16"
   version="1.1"
   id="svg6">
  <metadata
     id="metadata12">
    <rdf:RDF>
      <cc:Work
         rdf:about="">
        <dc:format>image/svg+xml</dc:format>
        <dc:type
           rdf:resource="http://purl.org/dc/dcmitype/StillImage" />
        <dc:title />
      </cc:Work>
    </rdf:RDF>
  </metadata>
  <defs
     id="defs10" />
  <g
     transform="translate(-1053,-60)"
     id="g4">
    <path
       id="path2"
       d="M 1 2.0039062 C 0.446 2.0039062 0 2.4499062 0 3.0039062 L 0 13.003906 C 0 13.557906 0.446 14.003906 1 14.003906 L 1.9960938 14.003906 L 0 16 L 2 16 L 3.9960938 14.003906 L 12.003906 14.003906 L 14 16 L 16 16 L 14.003906 14.003906 L 15 14.003906 C 15.554 14.003906 16 13.557906 16 13.003906 L 16 3.0039062 C 16 2.4499062 15.554 2.0039062 15 2.0039062 L 1 2.0039062 z M 1.5 3 L 14.5 3 C 14.5 3 15 3 15 3.5 L 15 12.5 C 15 13 14.5 13 14.5 13 L 1.5 13 C 1 13 1 12.5 1 12.5 L 1 3.5 C 1 3.5 1 3 1.5 3 z "
       transform="translate(1053,60)"
       style="fill:#666666;stroke:none" />
  </g>
</svg>

<?xml version="1.0" encoding="UTF-8" standalone="no"?>
<svg
   height="16"
   width="16"
   version="1.1"
   id="svg6"
   xmlns="http://www.w3.org/2000/svg"
   xmlns:svg="http://www.w3.org/2000/svg"
   xmlns:rdf="http://www.w3.org/1999/02/22-rdf-syntax-ns#"
   xmlns:cc="http://creativecommons.org/ns#"
   xmlns:dc="http://purl.org/dc/elements/1.1/">
  <metadata
     id="metadata12">
    <rdf:RDF>
      <cc:Work
         rdf:about="">
        <dc:format>image/svg+xml</dc:format>
        <dc:type
           rdf:resource="http://purl.org/dc/dcmitype/StillImage" />
      </cc:Work>
    </rdf:RDF>
  </metadata>
  <defs
     id="defs10" />
  <g
     transform="translate(-1053,-60.003906)"
     id="g4"
     style="fill:#666666;fill-opacity:1">
    <path
       id="path2"
       d="m 1,2.0039062 c -0.554,0 -1,0.446 -1,1 v 9.9999998 c 0,0.554 0.446,1 1,1 h 1 l -2,2 h 2 l 2,-2 h 8 l 2,2 h 2 l -2,-2 h 1 c 0.554,0 1,-0.446 1,-1 V 3.0039062 c 0,-0.554 -0.446,-1 -1,-1 z M 1.5,3.003906 h 13 c 0,0 0.5,0 0.5,0.5 v 9 c 0,0.5 -0.5,0.5 -0.5,0.5 h -13 c -0.5,0 -0.5,-0.5 -0.5,-0.5 v -9 c 0,0 0,-0.5 0.5,-0.5 z"
       transform="translate(1053,60)"
       style="fill:#666666;stroke:none;fill-opacity:1" />
  </g>
</svg>
